; generated by PrusaSlicer 2.5.2+win64 on 2023-04-17 at 16:18:25 UTC


;
;
; 

; external perimeters extrusion width = 0.45mm
; perimeters extrusion width = 0.45mm
; infill extrusion width = 0.45mm
; solid infill extrusion width = 0.45mm
; top infill extrusion width = 0.40mm
; support material extrusion width = 0.35mm
; first layer extrusion width = 0.42mm

M73 P0 R371
M73 C241
M73 Q0 S374
M73 D243
M201 X1000 Y1000 Z200 E5000 ; sets maximum accelerations, mm/sec^2
M203 X200 Y200 Z12 E120 ; sets maximum feedrates, mm / sec
M204 P1250 R1250 T1250 ; sets acceleration (P, T) and retract acceleration (R), mm/sec^2
M205 X8.00 Y8.00 Z0.40 E4.50 ; sets the jerk limits, mm/sec
M205 S0 T0 ; sets the minimum extruding and travel feed rate, mm/sec
M107
;TYPE:Custom
M862.3 P "MK3S" ; printer model check
M862.1 P0.4 ; nozzle diameter check
M115 U3.12.2 ; tell printer latest fw version
G90 ; use absolute coordinates
M83 ; extruder relative mode
M104 S230 ; set extruder temp
M140 S85 ; set bed temp
M190 S85 ; wait for bed temp
M109 S230 ; wait for extruder temp
G28 W ; home all without mesh bed level
G80 ; mesh bed leveling

G1 Z0.2 F720
G1 Y-3 F1000 ; go outside print area
G92 E0
G1 X60 E9 F1000 ; intro line
G1 X100 E12.5 F1000 ; intro line

G92 E0
M221 S95

; Don't change E values below. Excessive value can damage the printer.
M907 E430 ; set extruder motor current
G21 ; set units to millimeters
G90 ; use absolute coordinates
M83 ; use relative distances for extrusion
M900 K0.08 ; Filament gcode LA 1.5
M900 K45 ; Filament gcode LA 1.0
M107
;LAYER_CHANGE
;Z:0.2
;HEIGHT:0.2
;BEFORE_LAYER_CHANGE
G92 E0.0
;0.2


G1 E-1 F2100
G1 Z.2 F720
;AFTER_LAYER_CHANGE
;0.2
G1 Z.4
G1 X26.403 Y31.646 F10800
G1 Z.2 F720
G1 E1 F2100
M204 S800
;TYPE:Skirt/Brim
;WIDTH:0.42
G1 F1200
G1 X27.373 Y31.059 E.03555
G1 X32.678 Y29.396 E.17429
G1 X33.388 Y29.287 E.02254
G1 X216.611 Y29.287 E5.74483
G1 X217.37 Y29.411 E.0241
M73 P0 R370
G1 X222.764 Y31.228 E.17847
G1 X223.878 Y32.016 E.04278
G1 X224.383 Y33.468 E.0482
G1 X225.099 Y177.234 E4.50774
G1 X224.403 Y178.915 E.05704
M73 C240
G1 X221.986 Y181.332 E.1072
G1 X220.305 Y182.029 E.05704
G1 X29.695 Y182.029 E5.97643
G1 X28.014 Y181.332 E.05704
G1 X25.597 Y178.915 E.1072
G1 X24.901 Y177.234 E.05704
G1 X24.901 Y169.191 E.25219
G1 X25.617 Y33.404 E4.25755
G1 X26.379 Y31.701 E.05851
M204 S1000
;WIPE_START
G1 F8640
G1 X27.373 Y31.059 E-.27331
G1 X30.17 Y30.182 E-.67669
;WIPE_END
G1 E-.05 F2100
G1 Z.4 F720
G1 X32.495 Y33.353 F10800
G1 Z.2 F720
G1 E1 F2100
M204 S800
G1 F1200
G1 X32.633 Y32.968 E.01284
G1 X32.814 Y32.677 E.01076
G1 X33.225 Y32.281 E.01789
G1 X33.466 Y32.137 E.0088
G1 X34.041 Y31.967 E.0188
G1 X60.008 Y31.971 E.81417
G1 X60.368 Y32.054 E.01157
G1 X60.733 Y32.226 E.01266
G1 X61.192 Y32.637 E.01931
G1 X61.482 Y33.163 E.01883
G1 X61.574 Y33.573 E.01318
G1 X61.574 Y146.265 E3.53338
G1 X188.426 Y146.265 E3.97736
G1 X188.426 Y33.575 E3.53332
M73 D242
G1 X188.465 Y33.321 E.00805
M73 Q0 S373
G1 X188.682 Y32.815 E.01726
G1 X189.077 Y32.369 E.01871
G1 X189.443 Y32.133 E.01363
G1 X190.006 Y31.967 E.01841
G1 X215.959 Y31.967 E.81373
G1 X216.523 Y32.133 E.01844
G1 X216.898 Y32.378 E.01407
G1 X217.226 Y32.732 E.01513
G1 X217.33 Y32.889 E.00588
G1 X217.538 Y33.548 E.02167
G1 X217.538 Y167.237 E4.19174
G1 X217.357 Y167.881 E.02096
G1 X217.072 Y168.348 E.01717
G1 X216.768 Y168.78 E.01656
G1 X216.305 Y169.176 E.01909
G1 X215.927 Y169.346 E.013
G1 X215.512 Y169.426 E.01325
G1 X34.482 Y169.426 E5.67609
G1 X33.915 Y169.288 E.01829
M73 P0 R369
G1 X33.619 Y169.128 E.01056
G1 X33.378 Y168.937 E.00964
G1 X32.965 Y168.405 E.0211
G1 X32.643 Y167.882 E.01926
G1 X32.462 Y167.237 E.021
G1 X32.495 Y33.413 E4.19595
M204 S1000
G1 X32.861 Y33.45 F10800
M204 S800
M73 C239
G1 F1200
G1 X32.981 Y33.116 E.01112
G1 X33.118 Y32.901 E.00802
G1 X33.469 Y32.569 E.01513
G1 X33.601 Y32.49 E.00483
G1 X34.071 Y32.344 E.01543
G1 X59.986 Y32.348 E.81256
G1 X60.225 Y32.403 E.00767
G1 X60.545 Y32.555 E.01111
G1 X60.911 Y32.891 E.01559
G1 X61.136 Y33.315 E.01505
G1 X61.197 Y33.593 E.00891
G1 X61.197 Y146.642 E3.54459
G1 X188.803 Y146.642 E4.00101
G1 X188.803 Y33.591 E3.54465
G1 X188.833 Y33.407 E.00584
G1 X189.013 Y32.998 E.01402
G1 X189.339 Y32.641 E.01513
G1 X189.58 Y32.485 E.00902
G1 X190.035 Y32.344 E.01495
G1 X215.929 Y32.344 E.81188
G1 X216.385 Y32.485 E.01495
G1 X216.637 Y32.651 E.00948
G1 X216.938 Y32.976 E.01387
G1 X216.999 Y33.071 E.00355
G1 X217.161 Y33.577 E.01667
G1 X217.161 Y167.211 E4.19
G1 X217.022 Y167.707 E.01613
M73 D241
G1 X216.754 Y168.147 E.01616
G1 X216.474 Y168.544 E.01524
G1 X216.122 Y168.845 E.01453
G1 X215.829 Y168.981 E.01011
G1 X215.493 Y169.049 E.01076
G1 X34.504 Y169.049 E5.67478
G1 X34.07 Y168.944 E.014
M73 Q0 S372
G1 X33.839 Y168.821 E.00821
G1 X33.631 Y168.656 E.00831
G1 X33.272 Y168.185 E.01858
G1 X32.978 Y167.707 E.01758
G1 X32.839 Y167.211 E.01614
G1 X32.861 Y33.51 E4.19211
M204 S1000
G1 X33.227 Y33.547 F10800
M204 S800
G1 F1200
G1 X33.327 Y33.267 E.00932
G1 X33.418 Y33.13 E.00514
G1 X33.741 Y32.84 E.01361
G1 X34.103 Y32.721 E.01193
G1 X59.964 Y32.725 E.81087
G1 X60.081 Y32.752 E.00377
G1 X60.355 Y32.882 E.0095
G1 X60.626 Y33.139 E.01171
G1 X60.788 Y33.46 E.01128
G1 X60.82 Y33.611 E.00484
G1 X60.82 Y147.019 E3.55582
G1 X189.18 Y147.019 E4.02466
M73 P0 R368
G1 X189.18 Y33.608 E3.55593
M73 C238
G1 X189.2 Y33.497 E.00352
G1 X189.342 Y33.185 E.01077
G1 X189.596 Y32.917 E.01156
G1 X189.723 Y32.834 E.00476
G1 X190.067 Y32.721 E.01136
G1 X215.897 Y32.721 E.80989
G1 X216.241 Y32.834 E.01134
G1 X216.375 Y32.924 E.00506
G1 X216.665 Y33.247 E.01361
G1 X216.784 Y33.608 E.01193
G1 X216.784 Y167.186 E4.18823
G1 X216.687 Y167.532 E.0113
G1 X216.435 Y167.945 E.01514
G1 X216.179 Y168.308 E.01393
G1 X215.939 Y168.515 E.00994
G1 X215.692 Y168.63 E.00855
G1 X215.475 Y168.672 E.00691
G1 X34.526 Y168.672 E5.67352
G1 X34.222 Y168.598 E.00983
G1 X34.057 Y168.513 E.0058
G1 X33.885 Y168.377 E.0069
G1 X33.58 Y167.967 E.016
G1 X33.313 Y167.532 E.01599
G1 X33.216 Y167.186 E.0113
G1 X33.227 Y33.607 E4.18828
M204 S1000
G1 X33.593 Y33.643 F10800
M204 S800
M73 D240
G1 F1200
G1 X33.69 Y33.392 E.00845
G1 X33.925 Y33.175 E.01002
G1 X34.138 Y33.098 E.00709
G1 X59.912 Y33.098 E.80814
G1 X60.162 Y33.208 E.00856
G1 X60.333 Y33.379 E.00758
G1 X60.436 Y33.597 E.00757
G1 X60.443 Y147.396 E3.5681
G1 X189.557 Y147.396 E4.0483
G1 X189.564 Y33.597 E3.5681
M73 Q0 S371
G1 X189.667 Y33.379 E.00757
M73 P0 R367
G1 X189.848 Y33.198 E.00802
G1 X190.102 Y33.098 E.00856
G1 X215.862 Y33.098 E.80769
G1 X216.114 Y33.196 E.00845
G1 X216.331 Y33.43 E.01002
G1 X216.407 Y33.643 E.00709
G1 X216.407 Y167.16 E4.18632
G1 X216.351 Y167.358 E.00646
G1 X216.117 Y167.743 E.01413
G1 X215.884 Y168.071 E.01262
G1 X215.75 Y168.187 E.00556
G1 X215.588 Y168.266 E.00566
G1 X215.454 Y168.295 E.00429
G1 X34.549 Y168.295 E5.67215
G1 X34.375 Y168.252 E.00562
M73 C237
G1 X34.249 Y168.188 E.00443
G1 X34.144 Y168.102 E.00426
G1 X33.89 Y167.753 E.01353
G1 X33.649 Y167.358 E.0145
G1 X33.593 Y167.16 E.00646
G1 X33.593 Y33.703 E4.18444
M204 S1000
G1 X33.97 Y33.703 F10800
M204 S800
G1 F1200
G1 X33.999 Y33.616 E.00288
G1 X34.11 Y33.504 E.00495
G1 X34.18 Y33.475 E.00235
G1 X59.856 Y33.475 E.80506
G1 X59.925 Y33.504 E.00235
G1 X60.037 Y33.616 E.00495
G1 X60.066 Y33.685 E.00235
G1 X60.066 Y147.773 E3.57716
G1 X189.934 Y147.773 E4.07195
G1 X189.934 Y33.685 E3.57716
M73 P1 R367
M73 Q1 S371
G1 X189.963 Y33.616 E.00235
M73 D239
G1 X190.075 Y33.504 E.00495
G1 X190.144 Y33.475 E.00235
G1 X215.82 Y33.475 E.80506
G1 X215.89 Y33.504 E.00235
G1 X216.001 Y33.616 E.00495
G1 X216.03 Y33.685 E.00235
G1 X216.03 Y167.134 E4.18419
G1 X216.016 Y167.184 E.00163
M73 Q1 S370
G1 X215.798 Y167.541 E.01311
G1 X215.59 Y167.835 E.0113
G1 X215.429 Y167.918 E.00568
G1 X34.571 Y167.918 E5.67066
G1 X34.444 Y167.864 E.00432
M73 P1 R366
G1 X34.202 Y167.541 E.01267
G1 X33.984 Y167.184 E.01311
G1 X33.97 Y167.134 E.00163
G1 X33.97 Y33.763 E4.18175
M204 S1000
; printing object ScreenBezelOnly.stl id:0 copy 0
;WIPE_START
G1 F8640
G1 X33.999 Y33.616 E-.03468
G1 X34.11 Y33.504 E-.03644
G1 X34.18 Y33.475 E-.01731
G1 X37.911 Y33.475 E-.86157
;WIPE_END
G1 E-.05 F2100
G1 Z.4 F720
G1 X32.618 Y169.05 F10800
G1 Z.2 F720
G1 E1 F2100
M204 S800
;TYPE:Support material interface
;WIDTH:0.35
G1 F1200
G1 X32.205 Y168.436 E.01891
G1 X32.205 Y171.905 E.08859
G1 X31.697 Y171.905 E.01295
G1 X31.697 Y33.481 E3.53451
G1 X31.19 Y33.481 E.01295
M73 C236
G1 X31.19 Y171.905 E3.53451
G1 X30.683 Y171.905 E.01295
G1 X30.683 Y33.481 E3.53451
G1 X30.176 Y33.481 E.01295
G1 X30.176 Y169.598 E3.4756
G1 X29.669 Y169.598 E.01295
G1 X29.669 Y33.481 E3.4756
G1 X29.162 Y33.481 E.01295
M73 D238
G1 X29.162 Y169.598 E3.4756
G1 X28.655 Y169.598 E.01295
M73 Q1 S369
G1 X28.655 Y33.481 E3.4756
G1 X28.148 Y33.481 E.01295
G1 X28.148 Y169.598 E3.4756
M204 S1000
G1 X27.739 Y169.962 F10800
M204 S800
;TYPE:Support material
;WIDTH:0.42
M73 P1 R365
G1 F1200
G1 X30.046 Y169.962 E.07234
G1 X30.046 Y172.269 E.07234
G1 X32.353 Y172.269 E.07234
G1 X32.353 Y174.576 E.07234
G1 X217.647 Y174.576 E5.80975
G1 X217.647 Y172.269 E.07234
M73 C235
G1 X219.954 Y172.269 E.07234
G1 X219.954 Y169.962 E.07234
G1 X222.261 Y169.962 E.07234
G1 X222.261 Y169.269 E.02173
G1 X222.534 Y169.269 E.00855
G1 X222.534 Y177.156 E.24729
G1 X220.227 Y177.156 E.07234
G1 X220.227 Y179.463 E.07234
G1 X29.773 Y179.463 E5.97153
G1 X29.773 Y177.156 E.07234
G1 X27.466 Y177.156 E.07234
G1 X27.466 Y169.269 E.24729
G1 X27.739 Y169.269 E.00855
G1 X27.739 Y169.905 E.01995
M204 S1000
;WIPE_START
G1 F8640
G1 X27.739 Y169.269 E-.14693
G1 X27.466 Y169.269 E-.06297
G1 X27.466 Y172.474 E-.74009
;WIPE_END
G1 E-.05 F2100
G1 Z.4 F720
G1 X221.784 Y176.986 F10800
G1 Z.2 F720
G1 E1 F2100
M204 S800
G1 F1200
G1 X221.784 Y170.301 E.2096
G1 X221.365 Y170.301 E.01314
G1 X221.365 Y176.816 E.20428
G1 X220.946 Y176.816 E.01314
G1 X220.946 Y170.301 E.20428
G1 X220.527 Y170.301 E.01314
G1 X220.527 Y176.816 E.20428
G1 X220.108 Y176.816 E.01314
G1 X220.108 Y172.608 E.13194
G1 X219.689 Y172.608 E.01314
G1 X219.689 Y179.124 E.20428
G1 X219.27 Y179.124 E.01314
G1 X219.27 Y172.608 E.20428
G1 X218.851 Y172.608 E.01314
G1 X218.851 Y179.124 E.20428
G1 X218.432 Y179.124 E.01314
G1 X218.432 Y172.608 E.20428
G1 X218.013 Y172.608 E.01314
G1 X218.013 Y179.124 E.20428
G1 X217.594 Y179.124 E.01314
G1 X217.594 Y174.915 E.13194
G1 X217.175 Y174.915 E.01314
G1 X217.175 Y179.124 E.13194
G1 X216.756 Y179.124 E.01314
G1 X216.756 Y174.915 E.13194
G1 X216.337 Y174.915 E.01314
G1 X216.337 Y179.124 E.13194
G1 X215.918 Y179.124 E.01314
G1 X215.918 Y174.915 E.13194
G1 X215.499 Y174.915 E.01314
G1 X215.499 Y179.124 E.13194
G1 X215.08 Y179.124 E.01314
G1 X215.08 Y174.915 E.13194
G1 X214.661 Y174.915 E.01314
G1 X214.661 Y179.124 E.13194
G1 X214.242 Y179.124 E.01314
G1 X214.242 Y174.915 E.13194
G1 X213.823 Y174.915 E.01314
G1 X213.823 Y179.124 E.13194
G1 X213.404 Y179.124 E.01314
G1 X213.404 Y174.915 E.13194
G1 X212.985 Y174.915 E.01314
G1 X212.985 Y179.124 E.13194
G1 X212.566 Y179.124 E.01314
G1 X212.566 Y174.915 E.13194
G1 X212.147 Y174.915 E.01314
G1 X212.147 Y179.124 E.13194
G1 X211.728 Y179.124 E.01314
G1 X211.728 Y174.915 E.13194
G1 X211.309 Y174.915 E.01314
G1 X211.309 Y179.124 E.13194
G1 X210.89 Y179.124 E.01314
G1 X210.89 Y174.915 E.13194
G1 X210.471 Y174.915 E.01314
G1 X210.471 Y179.124 E.13194
G1 X210.052 Y179.124 E.01314
G1 X210.052 Y174.915 E.13194
G1 X209.633 Y174.915 E.01314
G1 X209.633 Y179.124 E.13194
G1 X209.214 Y179.124 E.01314
G1 X209.214 Y174.915 E.13194
G1 X208.795 Y174.915 E.01314
G1 X208.795 Y179.124 E.13194
G1 X208.376 Y179.124 E.01314
G1 X208.376 Y174.915 E.13194
G1 X207.957 Y174.915 E.01314
G1 X207.957 Y179.124 E.13194
G1 X207.538 Y179.124 E.01314
G1 X207.538 Y174.915 E.13194
G1 X207.119 Y174.915 E.01314
G1 X207.119 Y179.124 E.13194
G1 X206.701 Y179.124 E.01314
G1 X206.701 Y174.915 E.13194
G1 X206.282 Y174.915 E.01314
G1 X206.282 Y179.124 E.13194
G1 X205.863 Y179.124 E.01314
G1 X205.863 Y174.915 E.13194
G1 X205.444 Y174.915 E.01314
G1 X205.444 Y179.124 E.13194
G1 X205.025 Y179.124 E.01314
G1 X205.025 Y174.915 E.13194
G1 X204.606 Y174.915 E.01314
G1 X204.606 Y179.124 E.13194
G1 X204.187 Y179.124 E.01314
G1 X204.187 Y174.915 E.13194
G1 X203.768 Y174.915 E.01314
M73 D237
G1 X203.768 Y179.124 E.13194
G1 X203.349 Y179.124 E.01314
G1 X203.349 Y174.915 E.13194
G1 X202.93 Y174.915 E.01314
G1 X202.93 Y179.124 E.13194
G1 X202.511 Y179.124 E.01314
G1 X202.511 Y174.915 E.13194
G1 X202.092 Y174.915 E.01314
G1 X202.092 Y179.124 E.13194
G1 X201.673 Y179.124 E.01314
G1 X201.673 Y174.915 E.13194
G1 X201.254 Y174.915 E.01314
G1 X201.254 Y179.124 E.13194
G1 X200.835 Y179.124 E.01314
G1 X200.835 Y174.915 E.13194
G1 X200.416 Y174.915 E.01314
G1 X200.416 Y179.124 E.13194
G1 X199.997 Y179.124 E.01314
G1 X199.997 Y174.915 E.13194
G1 X199.578 Y174.915 E.01314
G1 X199.578 Y179.124 E.13194
G1 X199.159 Y179.124 E.01314
G1 X199.159 Y174.915 E.13194
G1 X198.74 Y174.915 E.01314
G1 X198.74 Y179.124 E.13194
G1 X198.321 Y179.124 E.01314
G1 X198.321 Y174.915 E.13194
G1 X197.902 Y174.915 E.01314
G1 X197.902 Y179.124 E.13194
G1 X197.483 Y179.124 E.01314
G1 X197.483 Y174.915 E.13194
G1 X197.064 Y174.915 E.01314
G1 X197.064 Y179.124 E.13194
G1 X196.645 Y179.124 E.01314
G1 X196.645 Y174.915 E.13194
G1 X196.226 Y174.915 E.01314
G1 X196.226 Y179.124 E.13194
G1 X195.807 Y179.124 E.01314
G1 X195.807 Y174.915 E.13194
G1 X195.388 Y174.915 E.01314
G1 X195.388 Y179.124 E.13194
G1 X194.969 Y179.124 E.01314
G1 X194.969 Y174.915 E.13194
G1 X194.55 Y174.915 E.01314
G1 X194.55 Y179.124 E.13194
G1 X194.131 Y179.124 E.01314
G1 X194.131 Y174.915 E.13194
G1 X193.712 Y174.915 E.01314
G1 X193.712 Y179.124 E.13194
G1 X193.293 Y179.124 E.01314
G1 X193.293 Y174.915 E.13194
G1 X192.874 Y174.915 E.01314
G1 X192.874 Y179.124 E.13194
G1 X192.455 Y179.124 E.01314
G1 X192.455 Y174.915 E.13194
G1 X192.036 Y174.915 E.01314
G1 X192.036 Y179.124 E.13194
G1 X191.617 Y179.124 E.01314
G1 X191.617 Y174.915 E.13194
G1 X191.198 Y174.915 E.01314
G1 X191.198 Y179.124 E.13194
G1 X190.779 Y179.124 E.01314
G1 X190.779 Y174.915 E.13194
G1 X190.36 Y174.915 E.01314
G1 X190.36 Y179.124 E.13194
G1 X189.941 Y179.124 E.01314
G1 X189.941 Y174.915 E.13194
G1 X189.522 Y174.915 E.01314
G1 X189.522 Y179.124 E.13194
G1 X189.103 Y179.124 E.01314
M73 Q1 S368
G1 X189.103 Y174.915 E.13194
G1 X188.684 Y174.915 E.01314
G1 X188.684 Y179.124 E.13194
G1 X188.266 Y179.124 E.01314
G1 X188.266 Y174.915 E.13194
G1 X187.847 Y174.915 E.01314
G1 X187.847 Y179.124 E.13194
G1 X187.428 Y179.124 E.01314
G1 X187.428 Y174.915 E.13194
G1 X187.009 Y174.915 E.01314
G1 X187.009 Y179.124 E.13194
G1 X186.59 Y179.124 E.01314
G1 X186.59 Y174.915 E.13194
G1 X186.171 Y174.915 E.01314
G1 X186.171 Y179.124 E.13194
G1 X185.752 Y179.124 E.01314
G1 X185.752 Y174.915 E.13194
G1 X185.333 Y174.915 E.01314
G1 X185.333 Y179.124 E.13194
G1 X184.914 Y179.124 E.01314
G1 X184.914 Y174.915 E.13194
G1 X184.495 Y174.915 E.01314
G1 X184.495 Y179.124 E.13194
G1 X184.076 Y179.124 E.01314
G1 X184.076 Y174.915 E.13194
G1 X183.657 Y174.915 E.01314
G1 X183.657 Y179.124 E.13194
G1 X183.238 Y179.124 E.01314
G1 X183.238 Y174.915 E.13194
G1 X182.819 Y174.915 E.01314
G1 X182.819 Y179.124 E.13194
G1 X182.4 Y179.124 E.01314
G1 X182.4 Y174.915 E.13194
G1 X181.981 Y174.915 E.01314
G1 X181.981 Y179.124 E.13194
G1 X181.562 Y179.124 E.01314
G1 X181.562 Y174.915 E.13194
G1 X181.143 Y174.915 E.01314
G1 X181.143 Y179.124 E.13194
G1 X180.724 Y179.124 E.01314
G1 X180.724 Y174.915 E.13194
G1 X180.305 Y174.915 E.01314
G1 X180.305 Y179.124 E.13194
G1 X179.886 Y179.124 E.01314
G1 X179.886 Y174.915 E.13194
G1 X179.467 Y174.915 E.01314
G1 X179.467 Y179.124 E.13194
G1 X179.048 Y179.124 E.01314
G1 X179.048 Y174.915 E.13194
G1 X178.629 Y174.915 E.01314
G1 X178.629 Y179.124 E.13194
G1 X178.21 Y179.124 E.01314
G1 X178.21 Y174.915 E.13194
G1 X177.791 Y174.915 E.01314
G1 X177.791 Y179.124 E.13194
G1 X177.372 Y179.124 E.01314
G1 X177.372 Y174.915 E.13194
G1 X176.953 Y174.915 E.01314
G1 X176.953 Y179.124 E.13194
G1 X176.534 Y179.124 E.01314
G1 X176.534 Y174.915 E.13194
G1 X176.115 Y174.915 E.01314
