; generated by PrusaSlicer 2.5.2+win64 on 2023-04-17 at 16:17:32 UTC


;
;
; 

; external perimeters extrusion width = 0.45mm
; perimeters extrusion width = 0.45mm
; infill extrusion width = 0.45mm
; solid infill extrusion width = 0.45mm
; top infill extrusion width = 0.40mm
; support material extrusion width = 0.35mm
; first layer extrusion width = 0.42mm

M73 P0 R369
M73 Q0 S373
M201 X1000 Y1000 Z200 E5000 ; sets maximum accelerations, mm/sec^2
M203 X200 Y200 Z12 E120 ; sets maximum feedrates, mm / sec
M204 P1250 R1250 T1250 ; sets acceleration (P, T) and retract acceleration (R), mm/sec^2
M205 X8.00 Y8.00 Z0.40 E4.50 ; sets the jerk limits, mm/sec
M205 S0 T0 ; sets the minimum extruding and travel feed rate, mm/sec
M107
;TYPE:Custom
M862.3 P "MK3S" ; printer model check
M862.1 P0.4 ; nozzle diameter check
M115 U3.12.2 ; tell printer latest fw version
G90 ; use absolute coordinates
M83 ; extruder relative mode
M104 S230 ; set extruder temp
M140 S85 ; set bed temp
M190 S85 ; wait for bed temp
M109 S230 ; wait for extruder temp
G28 W ; home all without mesh bed level
G80 ; mesh bed leveling

G1 Z0.2 F720
G1 Y-3 F1000 ; go outside print area
G92 E0
G1 X60 E9 F1000 ; intro line
G1 X100 E12.5 F1000 ; intro line

G92 E0
M221 S95

; Don't change E values below. Excessive value can damage the printer.
M907 E430 ; set extruder motor current
G21 ; set units to millimeters
G90 ; use absolute coordinates
M83 ; use relative distances for extrusion
M900 K0.08 ; Filament gcode LA 1.5
M900 K45 ; Filament gcode LA 1.0
M107
;LAYER_CHANGE
;Z:0.2
;HEIGHT:0.2
;BEFORE_LAYER_CHANGE
G92 E0.0
;0.2


M73 Q0 S372
G1 E-1 F2100
G1 Z.2 F720
;AFTER_LAYER_CHANGE
;0.2
G1 Z.4
G1 X28.014 Y28.668 F10800
G1 Z.2 F720
G1 E1 F2100
M204 S800
;TYPE:Skirt/Brim
;WIDTH:0.42
G1 F1200
G1 X29.695 Y27.971 E.05704
G1 X220.305 Y27.971 E5.97643
G1 X221.986 Y28.668 E.05704
G1 X224.403 Y31.085 E.1072
G1 X225.099 Y32.766 E.05704
G1 X224.383 Y176.596 E4.50973
G1 X223.597 Y178.354 E.06039
G1 X222.627 Y178.941 E.03553
G1 X217.327 Y180.604 E.17417
G1 X216.616 Y180.713 E.02257
G1 X33.384 Y180.713 E5.74509
G1 X32.673 Y180.604 E.02257
G1 X27.373 Y178.941 E.17416
G1 X26.313 Y178.264 E.03942
G1 X25.617 Y176.596 E.05668
G1 X24.901 Y32.766 E4.50973
G1 X25.597 Y31.085 E.05704
G1 X27.972 Y28.71 E.10532
M204 S1000
;WIPE_START
G1 F8640
G1 X29.695 Y27.971 E-.43292
G1 X31.935 Y27.971 E-.51708
;WIPE_END
G1 E-.05 F2100
G1 Z.4 F720
G1 X33.979 Y40.682 F10800
G1 Z.2 F720
G1 E1 F2100
M204 S800
G1 F1200
G1 X34.48 Y40.568 E.0161
G1 X215.569 Y40.574 E5.67792
G1 X215.974 Y40.665 E.01302
M73 P0 R368
G1 X216.337 Y40.838 E.0126
G1 X216.701 Y41.142 E.01488
G1 X217.338 Y42.075 E.0354
G1 X217.542 Y42.756 E.02232
G1 X217.543 Y176.452 E4.19194
G1 X217.334 Y177.111 E.02166
G1 X217.228 Y177.27 E.006
G1 X216.829 Y177.684 E.01802
G1 X216.346 Y177.942 E.01718
G1 X215.937 Y178.033 E.01314
G1 X190.006 Y178.033 E.81305
G1 X189.443 Y177.867 E.01841
G1 X189.077 Y177.631 E.01363
G1 X188.682 Y177.185 E.01871
G1 X188.465 Y176.679 E.01726
G1 X188.426 Y176.425 E.00805
G1 X188.426 Y63.735 E3.53332
G1 X61.574 Y63.735 E3.97736
M73 Q0 S371
G1 X61.574 Y176.425 E3.53332
G1 X61.535 Y176.679 E.00805
G1 X61.318 Y177.185 E.01726
G1 X60.923 Y177.631 E.01871
G1 X60.557 Y177.867 E.01363
G1 X59.994 Y178.033 E.01841
G1 X34.038 Y178.033 E.81384
G1 X33.379 Y177.824 E.02166
G1 X33.22 Y177.719 E.006
G1 X32.806 Y177.32 E.01802
G1 X32.548 Y176.836 E.01718
G1 X32.457 Y176.427 E.01314
G1 X32.458 Y42.756 E4.19115
G1 X32.661 Y42.077 E.02222
G1 X33.194 Y41.264 E.0305
G1 X33.548 Y40.917 E.01554
G1 X33.927 Y40.711 E.01351
M204 S1000
G1 X34.094 Y41.042 F10800
M204 S800
G1 F1200
G1 X34.503 Y40.945 E.01316
G1 X215.546 Y40.951 E5.67648
G1 X215.865 Y41.026 E.01027
G1 X216.147 Y41.165 E.00988
G1 X216.436 Y41.411 E.01188
G1 X217.009 Y42.261 E.03214
G1 X217.165 Y42.784 E.01711
G1 X217.166 Y176.423 E4.19015
G1 X217.003 Y176.929 E.01667
G1 X216.943 Y177.023 E.00349
G1 X216.581 Y177.398 E.01636
G1 X216.198 Y177.595 E.01349
G1 X215.917 Y177.656 E.00901
G1 X190.035 Y177.656 E.8115
G1 X189.58 Y177.515 E.01495
M73 P0 R367
G1 X189.339 Y177.359 E.00902
G1 X189.013 Y177.002 E.01513
G1 X188.833 Y176.593 E.01402
G1 X188.803 Y176.409 E.00584
G1 X188.803 Y63.358 E3.54465
G1 X61.197 Y63.358 E4.00101
G1 X61.197 Y176.409 E3.54465
G1 X61.167 Y176.593 E.00584
G1 X60.987 Y177.002 E.01402
G1 X60.661 Y177.359 E.01513
G1 X60.42 Y177.515 E.00902
G1 X59.965 Y177.656 E.01495
G1 X34.067 Y177.656 E.81199
G1 X33.561 Y177.493 E.01667
G1 X33.467 Y177.433 E.00349
G1 X33.092 Y177.071 E.01636
G1 X32.896 Y176.688 E.01349
G1 X32.834 Y176.407 E.00901
G1 X32.835 Y42.784 E4.18967
G1 X32.991 Y42.261 E.01709
M73 Q0 S370
G1 X33.499 Y41.487 E.02903
G1 X33.756 Y41.232 E.01136
G1 X34.042 Y41.072 E.01028
M204 S1000
G1 X34.215 Y41.401 F10800
M204 S800
G1 F1200
G1 X34.527 Y41.322 E.0101
G1 X215.521 Y41.328 E5.67494
G1 X215.749 Y41.386 E.00739
G1 X215.954 Y41.489 E.00718
G1 X216.167 Y41.677 E.00891
G1 X216.679 Y42.446 E.02896
G1 X216.788 Y42.811 E.01195
G1 X216.789 Y176.392 E4.18833
G1 X216.651 Y176.784 E.01303
G1 X216.378 Y177.079 E.01261
G1 X216.049 Y177.247 E.01158
G1 X215.898 Y177.279 E.00482
G1 X190.067 Y177.279 E.80992
G1 X189.723 Y177.166 E.01136
G1 X189.596 Y177.083 E.00476
G1 X189.342 Y176.815 E.01156
G1 X189.2 Y176.503 E.01077
G1 X189.18 Y176.392 E.00352
G1 X189.18 Y62.981 E3.55593
G1 X60.82 Y62.981 E4.02466
G1 X60.82 Y176.392 E3.55592
G1 X60.8 Y176.503 E.00352
M73 P0 R366
G1 X60.658 Y176.815 E.01077
G1 X60.404 Y177.083 E.01156
G1 X60.277 Y177.166 E.00476
G1 X59.933 Y177.279 E.01136
G1 X34.098 Y177.279 E.81003
G1 X33.706 Y177.141 E.01303
G1 X33.411 Y176.868 E.01261
G1 X33.243 Y176.539 E.01158
G1 X33.211 Y176.389 E.00482
G1 X33.212 Y42.811 E4.18823
G1 X33.321 Y42.445 E.01197
G1 X33.804 Y41.71 E.02759
G1 X33.969 Y41.544 E.00733
G1 X34.163 Y41.431 E.00703
M204 S1000
G1 X34.346 Y41.759 F10800
M204 S800
G1 F1200
G1 X34.55 Y41.699 E.00664
G1 X215.493 Y41.705 E5.67334
G1 X215.625 Y41.742 E.0043
G1 X215.754 Y41.81 E.00458
G1 X215.895 Y41.938 E.00596
G1 X216.348 Y42.629 E.02593
G1 X216.411 Y42.839 E.00685
G1 X216.412 Y176.357 E4.18637
G1 X216.335 Y176.57 E.00709
M73 Q0 S369
G1 X216.128 Y176.794 E.00957
G1 X215.881 Y176.902 E.00845
G1 X190.102 Y176.902 E.80827
G1 X189.848 Y176.802 E.00856
G1 X189.667 Y176.621 E.00802
G1 X189.564 Y176.403 E.00757
G1 X189.557 Y62.604 E3.5681
G1 X60.443 Y62.604 E4.0483
G1 X60.436 Y176.403 E3.5681
G1 X60.333 Y176.621 E.00757
G1 X60.152 Y176.802 E.00802
G1 X59.898 Y176.902 E.00856
G1 X34.133 Y176.902 E.80783
G1 X33.92 Y176.825 E.00709
G1 X33.696 Y176.618 E.00957
G1 X33.589 Y176.371 E.00845
G1 X33.589 Y42.839 E4.18682
G1 X33.652 Y42.629 E.00685
G1 X34.107 Y41.935 E.02602
G1 X34.211 Y41.834 E.00456
G1 X34.294 Y41.788 E.00297
M204 S1000
G1 X34.468 Y42.119 F10800
M204 S800
G1 F1200
G1 X34.573 Y42.076 E.00353
G1 X215.427 Y42.076 E5.67057
G1 X215.557 Y42.132 E.00443
M73 P1 R365
M73 Q1 S369
G1 X216.018 Y42.813 E.02578
G1 X216.034 Y42.866 E.00173
G1 X216.034 Y176.315 E4.1842
G1 X216.006 Y176.384 E.00235
G1 X215.894 Y176.496 E.00495
G1 X215.825 Y176.525 E.00235
G1 X190.144 Y176.525 E.8052
G1 X190.075 Y176.496 E.00235
G1 X189.963 Y176.384 E.00495
G1 X189.934 Y176.315 E.00235
G1 X189.934 Y62.227 E3.57716
G1 X60.066 Y62.227 E4.07195
G1 X60.066 Y176.315 E3.57716
M73 Q1 S368
G1 X60.037 Y176.384 E.00235
G1 X59.925 Y176.496 E.00495
G1 X59.856 Y176.525 E.00235
G1 X34.175 Y176.525 E.8052
G1 X34.106 Y176.496 E.00235
G1 X33.994 Y176.384 E.00495
G1 X33.966 Y176.315 E.00235
G1 X33.966 Y42.866 E4.1842
G1 X33.982 Y42.813 E.00173
G1 X34.42 Y42.153 E.02483
M204 S1000
; printing object ScreenBezelOnly.stl id:0 copy 0
;WIPE_START
G1 F8640
G1 X34.573 Y42.076 E-.03949
G1 X38.516 Y42.076 E-.91051
;WIPE_END
G1 E-.05 F2100
G1 Z.4 F720
G1 X31.943 Y42.354 F10800
G1 Z.2 F720
G1 E1 F2100
M204 S800
;TYPE:Support material interface
;WIDTH:0.35
G1 F1200
G1 X32.164 Y41.622 E.01953
G1 X32.205 Y41.56 E.00188
G1 X32.205 Y38.095 E.08849
G1 X31.697 Y38.095 E.01295
G1 X31.697 Y176.52 E3.53451
G1 X31.19 Y176.52 E.01295
G1 X31.19 Y38.095 E3.53451
G1 X30.683 Y38.095 E.01295
G1 X30.683 Y176.52 E3.53451
G1 X30.176 Y176.52 E.01295
G1 X30.176 Y40.402 E3.4756
G1 X29.669 Y40.402 E.01295
M73 P1 R364
G1 X29.669 Y176.52 E3.4756
G1 X29.162 Y176.52 E.01295
G1 X29.162 Y40.402 E3.4756
G1 X28.655 Y40.402 E.01295
G1 X28.655 Y176.52 E3.4756
G1 X28.148 Y176.52 E.01295
M73 Q1 S367
G1 X28.148 Y40.402 E3.4756
M204 S1000
;WIPE_START
G1 F8640
G1 X28.148 Y44.516 E-.95
;WIPE_END
G1 E-.05 F2100
G1 Z.4 F720
G1 X220.227 Y32.844 F10800
G1 Z.2 F720
G1 E1 F2100
M204 S800
;TYPE:Support material
;WIDTH:0.42
G1 F1200
G1 X222.534 Y32.844 E.07234
G1 X222.534 Y40.731 E.24729
G1 X222.261 Y40.731 E.00855
G1 X222.261 Y40.038 E.02173
G1 X219.954 Y40.038 E.07234
G1 X219.954 Y37.731 E.07234
G1 X217.647 Y37.731 E.07234
G1 X217.647 Y35.424 E.07234
G1 X32.353 Y35.424 E5.80975
G1 X32.353 Y37.731 E.07234
G1 X30.046 Y37.731 E.07234
G1 X30.046 Y40.038 E.07234
G1 X27.739 Y40.038 E.07234
G1 X27.739 Y40.731 E.02173
G1 X27.466 Y40.731 E.00855
G1 X27.466 Y32.844 E.24729
G1 X29.773 Y32.844 E.07234
G1 X29.773 Y30.537 E.07234
G1 X220.227 Y30.537 E5.97153
G1 X220.227 Y32.788 E.07056
M204 S1000
G1 X221.784 Y39.868 F10800
M204 S800
G1 F1200
G1 X221.784 Y33.184 E.2096
G1 X221.365 Y33.184 E.01314
G1 X221.365 Y39.699 E.20428
G1 X220.946 Y39.699 E.01314
G1 X220.946 Y33.184 E.20428
G1 X220.527 Y33.184 E.01314
G1 X220.527 Y39.699 E.20428
G1 X220.293 Y39.699 E.00732
G1 X220.293 Y37.392 E.07234
G1 X220.108 Y37.392 E.00582
G1 X220.108 Y33.184 E.13194
G1 X219.887 Y33.184 E.00691
G1 X219.887 Y30.876 E.07234
G1 X219.689 Y30.876 E.00622
G1 X219.689 Y37.392 E.20428
G1 X219.27 Y37.392 E.01314
G1 X219.27 Y30.876 E.20428
G1 X218.851 Y30.876 E.01314
G1 X218.851 Y37.392 E.20428
G1 X218.432 Y37.392 E.01314
G1 X218.432 Y30.876 E.20428
G1 X218.013 Y30.876 E.01314
G1 X218.013 Y37.392 E.20428
G1 X217.986 Y37.392 E.00084
G1 X217.986 Y35.085 E.07234
G1 X217.594 Y35.085 E.0123
G1 X217.594 Y30.876 E.13194
G1 X217.175 Y30.876 E.01314
G1 X217.175 Y35.085 E.13194
G1 X216.756 Y35.085 E.01314
G1 X216.756 Y30.876 E.13194
G1 X216.337 Y30.876 E.01314
G1 X216.337 Y35.085 E.13194
G1 X215.918 Y35.085 E.01314
G1 X215.918 Y30.876 E.13194
G1 X215.499 Y30.876 E.01314
G1 X215.499 Y35.085 E.13194
M73 P1 R363
G1 X215.08 Y35.085 E.01314
G1 X215.08 Y30.876 E.13194
G1 X214.661 Y30.876 E.01314
G1 X214.661 Y35.085 E.13194
G1 X214.242 Y35.085 E.01314
G1 X214.242 Y30.876 E.13194
G1 X213.823 Y30.876 E.01314
G1 X213.823 Y35.085 E.13194
G1 X213.404 Y35.085 E.01314
G1 X213.404 Y30.876 E.13194
G1 X212.985 Y30.876 E.01314
G1 X212.985 Y35.085 E.13194
G1 X212.566 Y35.085 E.01314
G1 X212.566 Y30.876 E.13194
G1 X212.147 Y30.876 E.01314
G1 X212.147 Y35.085 E.13194
G1 X211.728 Y35.085 E.01314
G1 X211.728 Y30.876 E.13194
G1 X211.309 Y30.876 E.01314
G1 X211.309 Y35.085 E.13194
G1 X210.89 Y35.085 E.01314
G1 X210.89 Y30.876 E.13194
G1 X210.471 Y30.876 E.01314
G1 X210.471 Y35.085 E.13194
G1 X210.052 Y35.085 E.01314
G1 X210.052 Y30.876 E.13194
G1 X209.633 Y30.876 E.01314
G1 X209.633 Y35.085 E.13194
G1 X209.214 Y35.085 E.01314
G1 X209.214 Y30.876 E.13194
G1 X208.795 Y30.876 E.01314
G1 X208.795 Y35.085 E.13194
G1 X208.376 Y35.085 E.01314
G1 X208.376 Y30.876 E.13194
G1 X207.957 Y30.876 E.01314
G1 X207.957 Y35.085 E.13194
G1 X207.538 Y35.085 E.01314
G1 X207.538 Y30.876 E.13194
G1 X207.119 Y30.876 E.01314
G1 X207.119 Y35.085 E.13194
G1 X206.701 Y35.085 E.01314
G1 X206.701 Y30.876 E.13194
G1 X206.282 Y30.876 E.01314
G1 X206.282 Y35.085 E.13194
G1 X205.863 Y35.085 E.01314
G1 X205.863 Y30.876 E.13194
G1 X205.444 Y30.876 E.01314
G1 X205.444 Y35.085 E.13194
G1 X205.025 Y35.085 E.01314
G1 X205.025 Y30.876 E.13194
G1 X204.606 Y30.876 E.01314
G1 X204.606 Y35.085 E.13194
G1 X204.187 Y35.085 E.01314
G1 X204.187 Y30.876 E.13194
G1 X203.768 Y30.876 E.01314
G1 X203.768 Y35.085 E.13194
G1 X203.349 Y35.085 E.01314
G1 X203.349 Y30.876 E.13194
G1 X202.93 Y30.876 E.01314
G1 X202.93 Y35.085 E.13194
G1 X202.511 Y35.085 E.01314
G1 X202.511 Y30.876 E.13194
G1 X202.092 Y30.876 E.01314
G1 X202.092 Y35.085 E.13194
G1 X201.673 Y35.085 E.01314
G1 X201.673 Y30.876 E.13194
G1 X201.254 Y30.876 E.01314
G1 X201.254 Y35.085 E.13194
G1 X200.835 Y35.085 E.01314
G1 X200.835 Y30.876 E.13194
G1 X200.416 Y30.876 E.01314
G1 X200.416 Y35.085 E.13194
G1 X199.997 Y35.085 E.01314
G1 X199.997 Y30.876 E.13194
G1 X199.578 Y30.876 E.01314
G1 X199.578 Y35.085 E.13194
G1 X199.159 Y35.085 E.01314
G1 X199.159 Y30.876 E.13194
G1 X198.74 Y30.876 E.01314
G1 X198.74 Y35.085 E.13194
G1 X198.321 Y35.085 E.01314
G1 X198.321 Y30.876 E.13194
G1 X197.902 Y30.876 E.01314
G1 X197.902 Y35.085 E.13194
G1 X197.483 Y35.085 E.01314
G1 X197.483 Y30.876 E.13194
G1 X197.064 Y30.876 E.01314
G1 X197.064 Y35.085 E.13194
G1 X196.645 Y35.085 E.01314
G1 X196.645 Y30.876 E.13194
G1 X196.226 Y30.876 E.01314
G1 X196.226 Y35.085 E.13194
G1 X195.807 Y35.085 E.01314
G1 X195.807 Y30.876 E.13194
G1 X195.388 Y30.876 E.01314
G1 X195.388 Y35.085 E.13194
G1 X194.969 Y35.085 E.01314
G1 X194.969 Y30.876 E.13194
G1 X194.55 Y30.876 E.01314
G1 X194.55 Y35.085 E.13194
G1 X194.131 Y35.085 E.01314
G1 X194.131 Y30.876 E.13194
G1 X193.712 Y30.876 E.01314
G1 X193.712 Y35.085 E.13194
G1 X193.293 Y35.085 E.01314
G1 X193.293 Y30.876 E.13194
G1 X192.874 Y30.876 E.01314
G1 X192.874 Y35.085 E.13194
G1 X192.455 Y35.085 E.01314
G1 X192.455 Y30.876 E.13194
G1 X192.036 Y30.876 E.01314
G1 X192.036 Y35.085 E.13194
G1 X191.617 Y35.085 E.01314
G1 X191.617 Y30.876 E.13194
G1 X191.198 Y30.876 E.01314
G1 X191.198 Y35.085 E.13194
G1 X190.779 Y35.085 E.01314
G1 X190.779 Y30.876 E.13194
G1 X190.36 Y30.876 E.01314
G1 X190.36 Y35.085 E.13194
G1 X189.941 Y35.085 E.01314
G1 X189.941 Y30.876 E.13194
G1 X189.522 Y30.876 E.01314
G1 X189.522 Y35.085 E.13194
G1 X189.103 Y35.085 E.01314
G1 X189.103 Y30.876 E.13194
G1 X188.685 Y30.876 E.01314
G1 X188.685 Y35.085 E.13194
G1 X188.266 Y35.085 E.01314
G1 X188.266 Y30.876 E.13194
G1 X187.847 Y30.876 E.01314
G1 X187.847 Y35.085 E.13194
G1 X187.428 Y35.085 E.01314
G1 X187.428 Y30.876 E.13194
G1 X187.009 Y30.876 E.01314
G1 X187.009 Y35.085 E.13194
G1 X186.59 Y35.085 E.01314
G1 X186.59 Y30.876 E.13194
G1 X186.171 Y30.876 E.01314
G1 X186.171 Y35.085 E.13194
G1 X185.752 Y35.085 E.01314
G1 X185.752 Y30.876 E.13194
G1 X185.333 Y30.876 E.01314
G1 X185.333 Y35.085 E.13194
G1 X184.914 Y35.085 E.01314
G1 X184.914 Y30.876 E.13194
G1 X184.495 Y30.876 E.01314
G1 X184.495 Y35.085 E.13194
G1 X184.076 Y35.085 E.01314
G1 X184.076 Y30.876 E.13194
G1 X183.657 Y30.876 E.01314
G1 X183.657 Y35.085 E.13194
G1 X183.238 Y35.085 E.01314
M73 Q1 S366
G1 X183.238 Y30.876 E.13194
G1 X182.819 Y30.876 E.01314
G1 X182.819 Y35.085 E.13194
G1 X182.4 Y35.085 E.01314
G1 X182.4 Y30.876 E.13194
G1 X181.981 Y30.876 E.01314
G1 X181.981 Y35.085 E.13194
G1 X181.562 Y35.085 E.01314
G1 X181.562 Y30.876 E.13194
G1 X181.143 Y30.876 E.01314
G1 X181.143 Y35.085 E.13194
G1 X180.724 Y35.085 E.01314
G1 X180.724 Y30.876 E.13194
G1 X180.305 Y30.876 E.01314
G1 X180.305 Y35.085 E.13194
G1 X179.886 Y35.085 E.01314
G1 X179.886 Y30.876 E.13194
G1 X179.467 Y30.876 E.01314
G1 X179.467 Y35.085 E.13194
G1 X179.048 Y35.085 E.01314
G1 X179.048 Y30.876 E.13194
G1 X178.629 Y30.876 E.01314
G1 X178.629 Y35.085 E.13194
G1 X178.21 Y35.085 E.01314
G1 X178.21 Y30.876 E.13194
G1 X177.791 Y30.876 E.01314
G1 X177.791 Y35.085 E.13194
G1 X177.372 Y35.085 E.01314
G1 X177.372 Y30.876 E.13194
G1 X176.953 Y30.876 E.01314
G1 X176.953 Y35.085 E.13194
G1 X176.534 Y35.085 E.01314
G1 X176.534 Y30.876 E.13194
G1 X176.115 Y30.876 E.01314
G1 X176.115 Y35.085 E.13194
G1 X175.696 Y35.085 E.01314
G1 X175.696 Y30.876 E.13194
G1 X175.277 Y30.876 E.01314
G1 X175.277 Y35.085 E.13194
G1 X174.858 Y35.085 E.01314
G1 X174.858 Y30.876 E.13194
G1 X174.439 Y30.876 E.01314
G1 X174.439 Y35.085 E.13194
G1 X174.02 Y35.085 E.01314
G1 X174.02 Y30.876 E.13194
G1 X173.601 Y30.876 E.01314
G1 X173.601 Y35.085 E.13194
G1 X173.182 Y35.085 E.01314
G1 X173.182 Y30.876 E.13194
G1 X172.763 Y30.876 E.01314
G1 X172.763 Y35.085 E.13194
G1 X172.344 Y35.085 E.01314
G1 X172.344 Y30.876 E.13194
G1 X171.925 Y30.876 E.01314
